X:825
T:Miller of Drohan, The
T:Miller of Draughin, The
R:reel
H:Also played with doubled parts.
D:Christy O'Leary & Bert Deivert: Song's Sweet Caress
D:De Danann: Ballroom
Z:id:hn-reel-825
M:C|
L:1/8
K:G
G2BG DGBG | Edef gedB | G2BG DGBA | GEGA BcBA |
G2BG dGBG | Edef gfeg | faef dBAB | GEGA BABd ||
eE~E2 DEB,E | DEGA BcBA | GE~E2 DEB,E | DEGA BABd |
eE~E2 DEB,E | DEGA BcBA | GE~E2 DEB,E | DEGA BcBA ||
